X:163
T: ZIEHE DURCH DURCH DIE GOLDNE BRUECKE
N: K2296
O: Europa, Mitteleuropa, Deutschland, Westfalen; Brandenburg
R: Kinder - Lied, Reigen, Tanz - Spiel
M: 2/4
L: 1/8
K: D
 | AAF2 | AAF2 |
AABA | G2E
E | GGEE | GGE
E | GGAG | F2D
A | A2FA | A2F
A | AABA | GFE2

@@@ Tune index: 7500
